src/assets/preview-image__elevation.svg

<svg width="160" height="120" viewBox="0 0 160 120" fill="none" xmlns="http://www.w3.org/2000/svg">
<path d="M80 35.8787L174 72.9326L80 109.985L-14 72.9326L80 35.8787Z" fill="#ECF0F3"/>
<path d="M80.6631 11.2718L128.717 30.2142C131.25 31.2127 131.25 34.8002 128.717 35.7987L80.663 54.7402C79.9567 55.0186 79.1712 55.0186 78.4649 54.7402L30.411 35.7987C27.8779 34.8002 27.8779 31.2127 30.411 30.2142L78.4649 11.2718C79.1712 10.9934 79.9567 10.9934 80.6631 11.2718Z" fill="#ECF0F3" stroke="#18A0FB" stroke-width="2"/>
<path d="M81.0775 56.8342C80.6869 56.4437 80.0538 56.4437 79.6633 56.8342L73.2993 63.1982C72.9088 63.5887 72.9088 64.2219 73.2993 64.6124C73.6898 65.0029 74.323 65.0029 74.7135 64.6124L80.3704 58.9555L86.0272 64.6124C86.4177 65.0029 87.0509 65.0029 87.4414 64.6124C87.832 64.2219 87.832 63.5887 87.4414 63.1982L81.0775 56.8342ZM79.6633 109.301C80.0538 109.692 80.6869 109.692 81.0775 109.301L87.4414 102.938C87.832 102.547 87.832 101.914 87.4414 101.523C87.0509 101.133 86.4177 101.133 86.0272 101.523L80.3704 107.18L74.7135 101.523C74.323 101.133 73.6898 101.133 73.2993 101.523C72.9088 101.914 72.9088 102.547 73.2993 102.938L79.6633 109.301ZM79.3704 57.5413L79.3704 108.594L81.3704 108.594L81.3704 57.5413L79.3704 57.5413Z" fill="#CDCDD0"/>
</svg>

<svg width="160" height="120" fill="none" xmlns="http://www.w3.org/2000/svg"><path d="M80 35.879l94 37.054-94 37.052-94-37.052 94-37.054z" fill="#ECF0F3"/><path d="M80.663 11.272l48.054 18.942c2.533.999 2.533 4.586 0 5.585L80.663 54.74a2.997 2.997 0 01-2.198 0L30.41 35.8c-2.533-.999-2.533-4.586 0-5.585l48.054-18.942a2.997 2.997 0 012.198 0z" fill="#ECF0F3" stroke="#18A0FB" stroke-width="2"/><path d="M81.078 56.834a1 1 0 00-1.415 0L73.3 63.198a1 1 0 001.414 1.414l5.657-5.656 5.657 5.656a1 1 0 001.414-1.414l-6.364-6.364zm-1.415 52.467a1 1 0 001.415 0l6.363-6.363a1 1 0 00-1.414-1.415l-5.657 5.657-5.657-5.657a1 1 0 00-1.414 1.415l6.364 6.363zm-.293-51.76v51.053h2V57.541h-2z" fill="#CDCDD0"/></svg>
